!!!OTL: WO E KLEINS HUETTLE STEHT
!!!ARE: Europa, Mitteleuropa, Deutschland, Schwaben
!!!SCT: E0510
!!!YEM: Copyright 1995, estate of Helmut Schaffrath.
**kern
*ICvox
*Ivox
*M3/8
*k[f#]
*G:
=1
{8d
8g
8g
=2
8.f#
16e
8d}
=3
{8cc
8a
8f#
=4
8a
8g
8r}
=5
{8d
8g
8g
=6
8.f#
16e
8d}
=7
{8cc
8a
8f#
=8
4g
8r}
=9
{8.a
16b
8a
=10
8.a
16b
8a}
=11
{8.a
16b
8a
=12
8.a
16b
8a}
=13
{8g
8f#
8e
=14
8d
4cc}
=15
{16b
16a
16g
16f#
16e
16f#
=16
4g
8r}
==
!!!AGN: Liebes - Lied, Scherz
!!!ONB: ESAC (Essen Associative Code) Database: ERK1
!!!AMT: simple triple
!!!AIN: vox
!!!EED: Helmut Schaffrath
!!!EEV: 1.0
*-
